src/assets/filled/Brush4.svg

<svg width="24" height="24" viewBox="0 0 24 24"  xmlns="http://www.w3.org/2000/svg">
<path d="M9.5 19.5V18H4.5C3.95 18 3.45 17.78 3.09 17.41C2.72 17.05 2.5 16.55 2.5 16C2.5 14.97 3.3 14.11 4.31 14.01C4.37 14 4.43 14 4.5 14H19.5C19.57 14 19.63 14 19.69 14.01C20.17 14.05 20.59 14.26 20.91 14.59C21.32 14.99 21.54 15.56 21.49 16.18C21.4 17.23 20.45 18 19.39 18H14.5V19.5C14.5 20.88 13.38 22 12 22C10.62 22 9.5 20.88 9.5 19.5Z" />
<path d="M17.1901 2H13.2501C12.9701 2 12.7501 2.22 12.7501 2.5V4C12.7501 4.41 12.4101 4.75 12.0001 4.75C11.9101 4.75 11.8301 4.73 11.7501 4.7C11.4601 4.6 11.2501 4.32 11.2501 4V2.5C11.2501 2.22 11.0301 2 10.7501 2H9.24009C8.96009 2 8.74009 2.22 8.74009 2.5V7C8.74009 7.41 8.40009 7.75 7.99009 7.75C7.58009 7.75 7.24009 7.41 7.24009 7V4.75V2.5C7.24009 2.23 7.04009 2.02 6.77009 2H6.74009C5.00009 2.04 3.65009 3.55 3.83009 5.3L4.20009 12.05C4.23009 12.58 4.67009 13 5.20009 13H18.8001C19.3301 13 19.7701 12.58 19.8001 12.05L20.1701 5.3C20.3501 3.53 18.9601 2 17.1901 2Z" />
</svg>

<?xml version="1.0" encoding="UTF-8"?>
<svg width="24" height="24" viewBox="0 0 24 24" xmlns="http://www.w3.org/2000/svg">
 <path d="m9.5 19.5v-1.5h-5c-0.55 0-1.05-0.22-1.41-0.59-0.37-0.36-0.59-0.86-0.59-1.41 0-1.03 0.8-1.89 1.81-1.99 0.06-0.01 0.12-0.01 0.19-0.01h15c0.07 0 0.13 0 0.19 0.01 0.48 0.04 0.9 0.25 1.22 0.58 0.41 0.4 0.63 0.97 0.58 1.59-0.09 1.05-1.04 1.82-2.1 1.82h-4.89v1.5c0 1.38-1.12 2.5-2.5 2.5s-2.5-1.12-2.5-2.5z"/>
 <path d="m17.19 2h-3.94c-0.28 0-0.5 0.22-0.5 0.5v1.5c0 0.41-0.34 0.75-0.75 0.75-0.09 0-0.17-0.02-0.25-0.05-0.29-0.1-0.5-0.38-0.5-0.7v-1.5c0-0.28-0.22-0.5-0.5-0.5h-1.51c-0.28 0-0.5 0.22-0.5 0.5v4.5c0 0.41-0.34 0.75-0.75 0.75s-0.75-0.34-0.75-0.75v-4.5c0-0.27-0.2-0.48-0.47-0.5h-0.03c-1.74 0.04-3.09 1.55-2.91 3.3l0.37 6.75c0.03 0.53 0.47 0.95 1 0.95h13.6c0.53 0 0.97-0.42 1-0.95l0.37-6.75c0.18-1.77-1.21-3.3-2.98-3.3z"/>
</svg>
